packages/foundations/assets/icons/functional/images/editing/cross_20.svg

<svg width="20" height="20" viewBox="0 0 20 20" fill="none" xmlns="http://www.w3.org/2000/svg">
<g clip-path="url(#clip0_77_983)">
<path fill-rule="evenodd" clip-rule="evenodd" d="M4.00001 14.9998C3.99631 14.8672 4.01927 14.7353 4.06754 14.6118C4.11582 14.4883 4.18841 14.3757 4.28101 14.2808L8.56301 9.9998L4.28001 5.6868C4.09934 5.50394 3.99863 5.25685 4.00001 4.9998C4.00001 4.4998 4.40601 3.9998 5.00001 3.9998C5.25001 3.9998 5.50001 4.0938 5.68801 4.2808L10 8.5628L14.313 4.2808C14.4957 4.09975 14.7428 3.99868 15 3.9998C15.531 3.9998 16 4.4378 16 4.9998C16 5.2498 15.906 5.4998 15.719 5.6878L11.438 9.9998L15.718 14.2808C15.8108 14.3756 15.8836 14.4881 15.932 14.6117C15.9805 14.7352 16.0036 14.8672 16 14.9998C16 15.5308 15.562 15.9998 15 15.9998C14.8675 16.0035 14.7355 15.9805 14.612 15.9323C14.4885 15.884 14.3759 15.8114 14.281 15.7188L10 11.4058L5.71901 15.7198C5.62401 15.8122 5.51142 15.8846 5.38791 15.9327C5.26441 15.9808 5.1325 16.0036 5.00001 15.9998C4.43701 15.9998 4.00001 15.5308 4.00001 14.9998Z" fill="#1A1C1F"/>
</g>
<defs>
<clipPath id="clip0_77_983">
<rect width="20" height="20" fill="white"/>
</clipPath>
</defs>
</svg>

<svg xmlns="http://www.w3.org/2000/svg" width="20" height="20" fill="none"><g clip-path="url(#a)"><path fill="#1A1C1F" fill-rule="evenodd" d="M4 15a1 1 0 0 1 .281-.72L8.563 10 4.28 5.687A.97.97 0 0 1 4 5c0-.5.406-1 1-1 .25 0 .5.094.688.28L10 8.564l4.313-4.282A.97.97 0 0 1 15 4c.531 0 1 .438 1 1 0 .25-.094.5-.281.688L11.438 10l4.28 4.28A.99.99 0 0 1 16 15c0 .53-.438 1-1 1a1 1 0 0 1-.719-.281L10 11.406 5.719 15.72A1 1 0 0 1 5 16c-.563 0-1-.47-1-1" clip-rule="evenodd"/></g><defs><clipPath id="a"><path fill="#fff" d="M0 0h20v20H0z"/></clipPath></defs></svg>
